!!!COM:	Josquin des Prez
!!!CDT:	~1450-1521/08/27
!!!OPR:	Missa Hercules dux Ferrarie
!!!OTA:	Missa Philippus rex Castilie
!!!ONM:	1
!!!OTL:	Agnus Dei
!!!AGN:	Mass; Agnus Dei
!!!SCT:	NJE 11.1
!!!SCA:	New Josquin Edition 11.1
!!!voices: 6
!!!voices-OPR: 4(-6)
**kern	**kern	**kern	**kern	**kern	**kern
*staff6	*staff5	*staff4	*staff3	*staff1	*staff2
*Ivox	*Ivox	*Ivox	*Ivox	*Ivox	*Ivox
*I"Bassus2	*I"Bassus1	*I"Tenor	*I"Altus	*I"Superius2	*I"Superius1
*	*I"Bassus	*	*	*	*I"Superius
*I'B2	*I'B	*I'T	*I'A	*I'S2	*I'S
*>[A,B,C]	*>[A,B,C]	*>[A,B,C]	*>[A,B,C]	*k[]	*k[]
*>Agnus1[A]	*>Agnus1[A]	*>Agnus1[A]	*>Agnus1[A]	*M2/1	*M2/1
*>Agnus2[B]	*>Agnus2[B]	*>Agnus2[B]	*>Agnus2[B]	*>A	*>A
*>Agnus3[C]	*>Agnus3[C]	*>Agnus3[C]	*>Agnus3[C]	*met(C|)	*met(C|)
*>A	*>A	*>A	*>A	*>A	*>A
*clefF4	*clefF4	*clefGv2	*clefGv2	*clefG2	*clefG2
*k[]	*k[]	*k[]	*k[]	*k[]	*k[]
*M2/1	*M2/1	*M2/1	*M2/1	*M2/1	*M2/1
*met(C|)	*met(C|)	*met(C|)	*met(C|)	*met(C|)	*met(C|)
=1-	=1-	=1-	=1-	=1-	=1-
!!section: Agnus Dei I
!!!OMD: Agnus Dei I
0r	0r	0d	1d	0r	0r
.	.	.	2d\	.	.
.	.	.	[2d\	.	.
=2	=2	=2	=2	=2	=2
0r	0r	0e	2d\]	0r	0r
.	.	.	4c\	.	.
.	.	.	4B\	.	.
.	.	.	1c	.	.
=3	=3	=3	=3	=3	=3
0r	0r	0f	2d\	0r	2r
.	.	.	2.f\	.	2a/
.	.	.	.	.	2a/
.	.	.	4e\	.	.
.	.	.	[2d\	.	[2a/
=4	=4	=4	=4	=4	=4
0r	0r	0d	4d\]	0r	2a/]
.	.	.	4c\	.	.
.	.	.	4B\	.	4g/
.	.	.	4A/	.	4f/
.	.	.	1B	.	1g
=5	=5	=5	=5	=5	=5
0r	2r	0c	0A	0r	1a
.	2A\	.	.	.	.
.	2A\	.	.	.	[1cc
.	[2A\	.	.	.	.
=6	=6	=6	=6	=6	=6
0r	2A\]	0d	0r	0r	2cc\]
.	4G\	.	.	.	4b\
.	4F\	.	.	.	4a/
.	1G	.	.	.	1b
=7	=7	=7	=7	=7	=7
0r	1A	0c	2r	0r	0e
.	.	.	2A/	.	.
.	1AA	.	2A/	.	.
.	.	.	[2A/	.	.
=8	=8	=8	=8	=8	=8
0r	1BB	0d	2A/]	0r	2r
.	.	.	4G/	.	2d/
.	.	.	4F/	.	.
.	1BB	.	1G	.	2d/
.	.	.	.	.	[2d/
=9	=9	=9	=9	=9	=9
0r	1AA	0r	1A	0r	2d/]
.	.	.	.	.	4c/
.	.	.	.	.	4B/
.	1A	.	2r	.	1c
.	.	.	2A/	.	.
=10	=10	=10	=10	=10	=10
0r	2G\	0r	2B\	0r	1d
.	2F\	.	2A/	.	.
.	2G\	.	2B\	.	2r
.	2B-i\	.	2d\	.	2d/
=11	=11	=11	=11	=11	=11
0r	2A\	0r	2c\	0r	2e/
.	2F\	.	2.d\	.	2d/
.	1E	.	.	.	2e/
.	.	.	4B\	.	.
.	.	.	2c\	.	2g/
=12	=12	=12	=12	=12	=12
0r	1D	0r	2d\	0r	2f/
.	.	.	2B\	.	2.g/
.	2r	.	1A	.	.
.	.	.	.	.	4e/
.	2D\	.	.	.	2f/
=13	=13	=13	=13	=13	=13
0r	2E\	0r	1G	0r	2g/
.	2C/	.	.	.	2e/
.	1BB	.	2r	.	1d
.	.	.	2G/	.	.
=14	=14	=14	=14	=14	=14
0r	0AA	0r	2A/	0r	1c
.	.	.	2.c\	.	.
.	.	.	.	.	2r
.	.	.	4B\	.	.
.	.	.	4c\	.	2c/
.	.	.	4A/	.	.
=15	=15	=15	=15	=15	=15
0r	0r	0r	2B\	0r	2d/
.	.	.	2A/	.	2.f/
.	.	.	1d	.	.
.	.	.	.	.	4e/
.	.	.	.	.	4f/
.	.	.	.	.	4d/
=16	=16	=16	=16	=16	=16
0r	0r	0r	2c\	0r	2e/
.	.	.	2.d\	.	2.f/
.	.	.	4c\	.	4e/
.	.	.	4d\	.	4f/
.	.	.	4B\	.	4d/
=17	=17	=17	=17	=17	=17
0r	2r	0A	0c	0r	0e
.	2A\	.	.	.	.
.	2A\	.	.	.	.
.	[2A\	.	.	.	.
=18	=18	=18	=18	=18	=18
0r	2A\]	0B	0r	0r	0r
.	4G\	.	.	.	.
.	4F\	.	.	.	.
.	1G	.	.	.	.
=19	=19	=19	=19	=19	=19
0r	2A\	0c	2r	0r	0r
.	2.c\	.	2e\	.	.
.	.	.	2e\	.	.
.	4B\	.	.	.	.
.	[2A\	.	[2e\	.	.
=20	=20	=20	=20	=20	=20
0r	4A\]	0A	2e\]	0r	0r
.	4G\	.	.	.	.
.	4F\	.	4d\	.	.
.	4E\	.	4c\	.	.
.	1F	.	1d	.	.
=21	=21	=21	=21	=21	=21
0r	1E	0G	2e\	0r	2r
.	.	.	2c\	.	2e/
.	1E	.	1B	.	2e/
.	.	.	.	.	[2e/
=22	=22	=22	=22	=22	=22
0r	1F	0A	1A	0r	2e/]
.	.	.	.	.	4d/
.	.	.	.	.	4c/
.	1F	.	1r	.	1d
=23	=23	=23	=23	=23	=23
0r	1E	0G	2r	0r	2e/
.	.	.	2e\	.	2c/
.	1E	.	2e\	.	1B
.	.	.	[2e\	.	.
=24	=24	=24	=24	=24	=24
0r	1F	0A	2e\]	0r	1A
.	.	.	4d\	.	.
.	.	.	4c\	.	.
.	1F	.	1d	.	1r
=25	=25	=25	=25	=25	=25
0r	0E	0r	2e\	0r	1r
.	.	.	2.g\	.	.
.	.	.	.	.	1e
.	.	.	4f\	.	.
.	.	.	[2e\	.	.
=26	=26	=26	=26	=26	=26
0r	0r	0r	2e\]	0r	1f
.	.	.	4d\	.	.
.	.	.	4c\	.	.
.	.	.	1d	.	1f
=27	=27	=27	=27	=27	=27
0r	0r	0r	1e	0r	2e/
.	.	.	.	.	2.g/
.	.	.	2r	.	.
.	.	.	.	.	4f/
.	.	.	2e\	.	[2e/
=28	=28	=28	=28	=28	=28
0r	0r	0r	1f	0r	2e/]
.	.	.	.	.	4d/
.	.	.	.	.	4c/
.	.	.	1f	.	1d
=29	=29	=29	=29	=29	=29
0r	0r	0r	1e	0r	2e/
.	.	.	.	.	2g/
.	.	.	1c	.	2a/
.	.	.	.	.	[2cc\
=30	=30	=30	=30	=30	=30
0r	0r	0r	1d	0r	2cc\]
.	.	.	.	.	2b\
.	.	.	1f	.	2a/
.	.	.	.	.	[2cc\
=31	=31	=31	=31	=31	=31
0r	0r	0r	2e\	0r	2cc\]
.	.	.	2d\	.	2b\
.	.	.	2f\	.	2a/
.	.	.	[2e\	.	[2g/
=32	=32	=32	=32	=32	=32
0r	0r	0r	4e\]	0r	4g/]
.	.	.	4d\	.	4f/
.	.	.	1d	.	2d/
.	.	.	.	.	1e
.	.	.	2c#i\	.	.
=33	=33	=33	=33	=33	=33
0r	2r	0D	0d	0r	0d
.	2D\	.	.	.	.
.	2D\	.	.	.	.
.	[2D\	.	.	.	.
=34	=34	=34	=34	=34	=34
0r	2D\]	0E	0r	0r	0r
.	4C/	.	.	.	.
.	4BB/	.	.	.	.
.	1C	.	.	.	.
=35	=35	=35	=35	=35	=35
0r	2D\	0F	2r	0r	0r
.	2.F\	.	2A/	.	.
.	.	.	2A/	.	.
.	4E\	.	.	.	.
.	[2D\	.	[2A/	.	.
=36	=36	=36	=36	=36	=36
0r	4D\]	0D	2A/]	0r	0r
.	4C/	.	.	.	.
.	4BB/	.	4G/	.	.
.	4AA/	.	4F/	.	.
.	1BB	.	1G	.	.
=37	=37	=37	=37	=37	=37
0r	1AA	0C	1A	0r	1r
.	2r	.	2r	.	1e
.	2AA/	.	2A/	.	.
=38	=38	=38	=38	=38	=38
0r	1BB	0D	1F	0r	2d/
.	.	.	.	.	1f
.	1BB	.	1G	.	.
.	.	.	.	.	4e/
.	.	.	.	.	4d/
=39	=39	=39	=39	=39	=39
0r	1AA	0C	1A	0r	2f/
.	.	.	.	.	2e/
.	2r	.	2r	.	2r
.	2AA/	.	2A/	.	2e/
=40	=40	=40	=40	=40	=40
0r	1BB	0D	1F	0r	2d/
.	.	.	.	.	1f
.	1BB	.	1G	.	.
.	.	.	.	.	4e/
.	.	.	.	.	4d/
=41	=41	=41	=41	=41	=41
0r	1AA	0r	2A/	0r	2c/
.	.	.	2F/	.	2A/
.	2r	.	1E	.	2B/
.	2AA/	.	.	.	2c/
=42	=42	=42	=42	=42	=42
0r	2BB/	0r	1D	0r	2.d/
.	2C/	.	.	.	.
.	.	.	.	.	4c/
.	2D\	.	1r	.	4B/
.	.	.	.	.	4A/
.	[2E\	.	.	.	2c/
=43	=43	=43	=43	=43	=43
0r	2E\]	0r	1r	0r	4B/
.	.	.	.	.	4A/
.	2C/	.	.	.	1A
.	1BB	.	2r	.	.
.	.	.	2D/	.	2G#i/
=44	=44	=44	=44	=44	=44
0r	[0AA	0r	2E/	0r	2A/
.	.	.	2F/	.	2.a/
.	.	.	2G/	.	.
.	.	.	.	.	4g/
.	.	.	[2A/	.	2f/
=45	=45	=45	=45	=45	=45
0r	0AA]	0r	2A/]	0r	4e/
.	.	.	.	.	4d/
.	.	.	2F/	.	1d
.	.	.	1E	.	.
.	.	.	.	.	2c#i/
=46	=46	=46	=46	=46	=46
0r	0Dl	0r	0Dl	0r	0dl
!!LO:LB:i:g=z
=47||	=47||	=47||	=47||	=47||	=47||
*>B	*>B	*>B	*>B	*>B	*>B
*clefF4	*clefF4	*clefGv2	*clefGv2	*clefG2	*clefG2
*k[]	*k[]	*k[]	*k[]	*k[]	*k[]
*M2/1	*M2/1	*M2/1	*M2/1	*M2/1	*M2/1
*met(C|)	*met(C|)	*met(C|)	*met(C|)	*met(C|)	*met(C|)
!!!OMD: Agnus Dei II
!!section: Agnus Dei II
!	!	!	!	!	!LO:TX:Z=10:t=3-ex-1 canon at the lower octave/lower fourth
0r	0r	0r	0r	0r	2.d/
.	.	.	.	.	4e/
.	.	.	.	.	2f/
.	.	.	.	.	2g/
=48	=48	=48	=48	=48	=48
0r	0r	0r	0r	0r	1e
.	.	.	.	.	1d
=49	=49	=49	=49	=49	=49
0r	0r	2.D/	0r	0r	1.a
.	.	4E/	.	.	.
.	.	2F/	.	.	.
.	.	2G/	.	.	2d/
=50	=50	=50	=50	=50	=50
0r	0r	1E	0r	0r	2e/
.	.	.	.	.	2g/
.	.	1D	.	.	1f
=51	=51	=51	=51	=51	=51
0r	0r	1.A	2.A/	0r	1.e
.	.	.	4B\	.	.
.	.	.	2c\	.	.
.	.	2D/	2d\	.	2f/
=52	=52	=52	=52	=52	=52
0r	0r	2E/	1B	0r	1g
.	.	2G/	.	.	.
.	.	1F	1A	.	1a
=53	=53	=53	=53	=53	=53
0r	0r	1.E	1.e	0r	2g/
.	.	.	.	.	1g
.	.	2F/	2A/	.	4f/
.	.	.	.	.	4e/
=54	=54	=54	=54	=54	=54
0r	0r	1G	2B\	0r	1d
.	.	.	2d\	.	.
.	.	1A	1c	.	1r
=55	=55	=55	=55	=55	=55
0r	0r	2G/	1.B	0r	1.d
.	.	1G	.	.	.
.	.	4F/	2c\	.	2e/
.	.	4E/	.	.	.
=56	=56	=56	=56	=56	=56
0r	0r	1D	1d	0r	1f
.	.	1r	1e	.	2g/
.	.	.	.	.	2e/
=57	=57	=57	=57	=57	=57
0r	0r	1.D	2d\	0r	2f/
.	.	.	1d	.	2d/
.	.	.	.	.	2f/
.	.	2E/	4c\	.	2g/
.	.	.	4B\	.	.
=58	=58	=58	=58	=58	=58
0r	0r	1F	1A	0r	1a
.	.	2G/	1r	.	2d/
.	.	2E/	.	.	2g/
=59	=59	=59	=59	=59	=59
0r	0r	2F/	1.A	0r	2f/
.	.	2D/	.	.	1a
.	.	2F/	.	.	.
.	.	2G/	2B\	.	4g/
.	.	.	.	.	4f/
=60	=60	=60	=60	=60	=60
0r	0r	1A	1c	0r	1e
.	.	2D/	2d\	.	2r
.	.	2G/	2B\	.	2d/
=61	=61	=61	=61	=61	=61
0r	0r	2F/	2c\	0r	2.a/
.	.	1A	2A/	.	.
.	.	.	.	.	4g/
.	.	.	2c\	.	2e/
.	.	4G/	2d\	.	2a/
.	.	4F/	.	.	.
=62	=62	=62	=62	=62	=62
0r	0r	1E	1e	0r	2g/
.	.	.	.	.	2e/
.	.	2r	2A/	.	2.f/
.	.	2D/	2d\	.	.
.	.	.	.	.	4g/
=63	=63	=63	=63	=63	=63
0r	0r	2.A/	2c\	0r	2e/
.	.	.	1e	.	2a/
.	.	4G/	.	.	.
.	.	2E/	.	.	2g/
.	.	2A/	4d\	.	[2e/
.	.	.	4c\	.	.
=64	=64	=64	=64	=64	=64
0r	0r	2G/	1B	0r	4e/]
.	.	.	.	.	4f/
.	.	2E/	.	.	2g/
.	.	2.F/	2r	.	2c/
.	.	.	2A/	.	2a/
.	.	4G/	.	.	.
=65	=65	=65	=65	=65	=65
0r	0r	2E/	2.e\	0r	2g/
.	.	2A/	.	.	2.e/
.	.	.	4d\	.	.
.	.	2G/	2B\	.	.
.	.	.	.	.	4f/
.	.	[2E/	2e\	.	[2g/
=66	=66	=66	=66	=66	=66
0r	0r	4E/]	2d\	0r	4g/]
.	.	4F/	.	.	4f/
.	.	2G/	2B\	.	2d/
.	.	2C/	2.c\	.	2.e/
.	.	2A/	.	.	.
.	.	.	4d\	.	4f/
=67	=67	=67	=67	=67	=67
0r	0r	2G/	2B\	0r	4g/
.	.	.	.	.	4a/
.	.	2.E/	2e\	.	1g
.	.	.	2d\	.	.
.	.	4F/	.	.	.
.	.	[2G/	[2B\	.	2d/
=68	=68	=68	=68	=68	=68
0r	0r	4G/]	4B\]	0r	2e/
.	.	4F/	4c\	.	.
.	.	2D/	2d\	.	2f/
.	.	2.E/	2G/	.	[1g
.	.	.	2e\	.	.
.	.	4F/	.	.	.
=69	=69	=69	=69	=69	=69
0r	0r	4G/	2d\	0r	2g/]
.	.	4A/	.	.	.
.	.	1G	2.B\	.	4f/
.	.	.	.	.	4e/
.	.	.	.	.	2d/
.	.	.	4c\	.	.
.	.	2D/	[2d\	.	2f/
=70	=70	=70	=70	=70	=70
0r	0r	2E/	4d\]	0r	2g/
.	.	.	4c\	.	.
.	.	2F/	2A/	.	2a/
.	.	[1G	2.B\	.	[1d
.	.	.	4c\	.	.
=71	=71	=71	=71	=71	=71
0r	0r	2G/]	4d\	0r	1d]
.	.	.	4e\	.	.
.	.	4F/	1d	.	.
.	.	4E/	.	.	.
.	.	2D/	.	.	2r
.	.	2F/	2A/	.	2a/
=72	=72	=72	=72	=72	=72
0r	0r	2G/	2B\	0r	2g/
.	.	2A/	2c\	.	2e/
.	.	[1D	[1d	.	2f/
.	.	.	.	.	2d/
=73	=73	=73	=73	=73	=73
0r	0r	1D]	2d\]	0r	2.f/
.	.	.	4c\	.	.
.	.	.	4B\	.	4e/
.	.	2r	2A/	.	1c
.	.	2A/	2c\	.	.
=74	=74	=74	=74	=74	=74
0r	0r	2G/	2d\	0r	2r
.	.	2E/	2e\	.	2g/
.	.	2F/	[1A	.	2a/
.	.	2D/	.	.	2f/
=75	=75	=75	=75	=75	=75
0r	0r	2.F/	1A]	0r	2.a/
.	.	4E/	.	.	4g/
.	.	1C	2r	.	2e/
.	.	.	2e\	.	2g/
=76	=76	=76	=76	=76	=76
0r	0r	2r	2d\	0r	2f/
.	.	2G/	2B\	.	2d/
.	.	2A/	2c\	.	2r
.	.	2F/	2A/	.	[2a/
=77	=77	=77	=77	=77	=77
0r	0r	2.A/	2.c\	0r	2a/]
.	.	.	.	.	2e/
.	.	4G/	4B\	.	.
.	.	2E/	1G	.	2g/
.	.	2G/	.	.	2d/
=78	=78	=78	=78	=78	=78
0r	0r	2F/	2r	0r	1f
.	.	2D/	2d\	.	.
.	.	2r	2e\	.	1e
.	.	[2A/	2c\	.	.
=79	=79	=79	=79	=79	=79
0r	0r	2A/]	2.e\	0r	2r
.	.	2E/	.	.	2e/
.	.	.	4d\	.	.
.	.	2G/	2B\	.	2d/
.	.	2D/	2d\	.	[2f/
=80	=80	=80	=80	=80	=80
0r	0r	1F	2c\	0r	4f/]
.	.	.	.	.	4e/
.	.	.	2A/	.	4c/
.	.	.	.	.	4d/
.	.	1E	2r	.	4e/
.	.	.	.	.	4f/
.	.	.	[2e\	.	2g/
=81	=81	=81	=81	=81	=81
0r	0r	2r	2e\]	0r	2c/
.	.	2E/	2B\	.	2g/
.	.	2D/	2d\	.	2f/
.	.	[2F/	2A/	.	[2a/
=82	=82	=82	=82	=82	=82
0r	0r	4F/]	1c	0r	2a/]
.	.	4E/	.	.	.
.	.	4C/	.	.	2e/
.	.	4D/	.	.	.
.	.	4E/	1B	.	2g/
.	.	4F/	.	.	.
.	.	2G/	.	.	2d/
=83	=83	=83	=83	=83	=83
0r	0r	2C/	2r	0r	2e/
.	.	2G/	2B\	.	2d/
.	.	2F/	2A/	.	2f/
.	.	[2A/	[2c\	.	2e/
=84	=84	=84	=84	=84	=84
0r	0r	2A/]	4c\]	0r	2r
.	.	.	4B\	.	.
.	.	2E/	4G/	.	2e/
.	.	.	4A/	.	.
.	.	2G/	4B\	.	2d/
.	.	.	4c\	.	.
.	.	2D/	2d\	.	2f/
=85	=85	=85	=85	=85	=85
0r	0r	2E/	2G/	0r	2g/
.	.	2D/	2d\	.	1a
.	.	2F/	2c\	.	.
.	.	2E/	[2e\	.	2g/
=86	=86	=86	=86	=86	=86
0r	0r	2r	2e\]	0r	2e/
.	.	2E/	2B\	.	2g/
.	.	2D/	2d\	.	2.f/
.	.	2F/	2A/	.	.
.	.	.	.	.	4e/
=87	=87	=87	=87	=87	=87
0r	0r	2G/	2B\	0r	2d/
.	.	1A	2A/	.	4c/
.	.	.	.	.	4d/
.	.	.	2c\	.	4e/
.	.	.	.	.	4f/
.	.	2G/	2B\	.	[2g/
=88	=88	=88	=88	=88	=88
0r	0r	2E/	2r	0r	2g/]
.	.	2G/	2B\	.	4d/
.	.	.	.	.	4e/
.	.	2.F/	2A/	.	4f/
.	.	.	.	.	4g/
.	.	.	2c\	.	[2a/
.	.	4E/	.	.	.
=89	=89	=89	=89	=89	=89
0r	0r	2D/	2d\	0r	2a/]
.	.	4C/	1e	.	2e/
.	.	4D/	.	.	.
.	.	4E/	.	.	2.g/
.	.	4F/	.	.	.
.	.	[2G/	2d\	.	.
.	.	.	.	.	4f/
=90	=90	=90	=90	=90	=90
0r	0r	2G/]	2B\	0r	2d/
.	.	4D/	2d\	.	1f
.	.	4E/	.	.	.
.	.	4F/	2.c\	.	.
.	.	4G/	.	.	.
.	.	[2A/	.	.	2e/
.	.	.	4B\	.	.
=91	=91	=91	=91	=91	=91
0r	0r	2A/]	2A/	0r	2c/
.	.	2E/	4G/	.	2e/
.	.	.	4A/	.	.
.	.	2.G/	4B\	.	2d/
.	.	.	4c\	.	.
.	.	.	[2d\	.	2g/
.	.	4F/	.	.	.
=92	=92	=92	=92	=92	=92
0r	0r	2D/	2d\]	0r	2f/
.	.	1F	4A/	.	1a
.	.	.	4B\	.	.
.	.	.	4c\	.	.
.	.	.	4d\	.	.
.	.	2E/	[2e\	.	2g/
=93	=93	=93	=93	=93	=93
0r	0r	2C/	2e\]	0r	2e/
.	.	2E/	2B\	.	2g/
.	.	2D/	2.d\	.	2f/
.	.	2G/	.	.	2d/
.	.	.	4c\	.	.
=94	=94	=94	=94	=94	=94
0r	0r	2F/	2A/	0r	1a
.	.	1A	1c	.	.
.	.	.	.	.	2e/
.	.	2G/	2B\	.	[2g/
=95	=95	=95	=95	=95	=95
0r	0r	2E/	2G/	0r	2g/]
.	.	2G/	2B\	.	2d/
.	.	2F/	2A/	.	1f
.	.	2D/	2d\	.	.
=96	=96	=96	=96	=96	=96
0r	0r	0Al	0cl	0r	0el
!!LO:LB:i:g=z
=97||	=97||	=97||	=97||	=97||	=97||
*>C	*>C	*>C	*>C	*>C	*>C
*clefF4	*clefF4	*clefGv2	*clefGv2	*clefG2	*clefG2
*k[]	*k[]	*k[]	*k[]	*k[]	*k[]
*M2/1	*M2/1	*M2/1	*M2/1	*M2/1	*M2/1
*met(C|)	*met(C|)	*met(C|)	*met(C|)	*met(C|)	*met(C|)
!!!OMD: Agnus Dei III
!!section: Agnus Dei III
0r	0r	0r	1r	0r	0d
.	.	.	1d	.	.
=98	=98	=98	=98	=98	=98
0r	0r	0r	1.e	0r	0c
.	.	.	4d\	.	.
.	.	.	4c\	.	.
=99	=99	=99	=99	=99	=99
0r	0r	0r	2.B\	1r	0d
.	.	.	4A/	.	.
.	.	.	1B	1d	.
=100	=100	=100	=100	=100	=100
0r	0r	0r	4A/	1.e	0c
.	.	.	4B\	.	.
.	.	.	4c\	.	.
.	.	.	4d\	.	.
.	.	.	2.e\	.	.
.	.	.	.	4d/	.
.	.	.	4f\	4c/	.
=101	=101	=101	=101	=101	=101
0r	0r	0r	2g\	2.B/	0d
.	.	.	1a	.	.
.	.	.	.	4A/	.
.	.	.	.	1B	.
.	.	.	2g#i\	.	.
=102	=102	=102	=102	=102	=102
0r	0r	0r	1a	2A/	0f
.	.	.	.	2.a/	.
.	.	.	1d	.	.
.	.	.	.	4g/	.
.	.	.	.	4a/	.
.	.	.	.	4b\	.
=103	=103	=103	=103	=103	=103
0r	0r	0r	2c\	2.cc\	0e
.	.	.	1e	.	.
.	.	.	.	4b\	.
.	.	.	.	2g/	.
.	.	.	4d\	[2a/	.
.	.	.	4c\	.	.
=104	=104	=104	=104	=104	=104
0r	0r	0r	2.B\	2a/]	0d
.	.	.	.	4g#i/	.
.	.	.	4A/	4f#i/	.
.	.	.	1B	1g#i	.
=105	=105	=105	=105	=105	=105
1r	0r	0D	1A	1.a	0r
1D	.	.	2r	.	.
.	.	.	2A/	4g/	.
.	.	.	.	4f/	.
=106	=106	=106	=106	=106	=106
1.E	0r	0C	2.c\	4g/	0r
.	.	.	.	4f/	.
.	.	.	.	4e/	.
.	.	.	4B\	4d/	.
.	.	.	2G/	1e	.
4D\	.	.	[2A/	.	.
4C/	.	.	.	.	.
=107	=107	=107	=107	=107	=107
2.BB/	1r	0D	2A/]	0d	0r
.	.	.	4G#i/	.	.
4AA/	.	.	4F#i/	.	.
1BB	1D	.	1G#i	.	.
=108	=108	=108	=108	=108	=108
4AA/	1.E	0C	1A	0r	0r
4BB/	.	.	.	.	.
4C/	.	.	.	.	.
4D\	.	.	.	.	.
2.E\	.	.	1G	.	.
.	4D\	.	.	.	.
4F\	4C/	.	.	.	.
=109	=109	=109	=109	=109	=109
2G\	2.BB/	0D	1r	0r	0r
1A	.	.	.	.	.
.	4AA/	.	.	.	.
.	1BB	.	1d	.	.
2G#i\	.	.	.	.	.
=110	=110	=110	=110	=110	=110
1A	2AA/	0F	1c	0r	0r
.	2.A\	.	.	.	.
1D	.	.	1d	.	.
.	4G\	.	.	.	.
.	4A\	.	.	.	.
.	4B\	.	.	.	.
=111	=111	=111	=111	=111	=111
2C/	2.c\	0E	2.e\	0r	0r
1E	.	.	.	.	.
.	4B\	.	4d\	.	.
.	2G\	.	2B\	.	.
4D\	[2A\	.	2c\	.	.
4C/	.	.	.	.	.
=112	=112	=112	=112	=112	=112
2.BB/	2A\]	0D	2d\	1r	0r
.	4G#i\	.	2A/	.	.
4AA/	4F#i\	.	.	.	.
1BB	1G#i	.	2.d\	1dd	.
.	.	.	4e\	.	.
=113	=113	=113	=113	=113	=113
0AA	0A	0r	1f	2cc\	0a
.	.	.	.	2a/	.
.	.	.	1e	1cc	.
=114	=114	=114	=114	=114	=114
0E	0r	0r	1r	2b\	0g
.	.	.	.	2g/	.
.	.	.	1g	1b	.
=115	=115	=115	=115	=115	=115
0r	0r	0r	2f\	1a	0a
.	.	.	2d\	.	.
.	.	.	1f	1d	.
=116	=116	=116	=116	=116	=116
0r	0r	0r	2e\	1r	0g
.	.	.	2c\	.	.
.	.	.	1e	1g	.
=117	=117	=117	=117	=117	=117
0r	0r	0r	2d\	2f/	0a
.	.	.	1f	2d/	.
.	.	.	.	1f	.
.	.	.	4e\	.	.
.	.	.	4d\	.	.
=118	=118	=118	=118	=118	=118
0r	0r	0r	2c\	1e	0cc
.	.	.	2.A/	.	.
.	.	.	.	1a	.
.	.	.	4B\	.	.
.	.	.	4c\	.	.
.	.	.	4d\	.	.
=119	=119	=119	=119	=119	=119
0r	0r	0r	2e\	2g/	0b
.	.	.	1g	2e/	.
.	.	.	.	1g	.
.	.	.	2e\	.	.
=120	=120	=120	=120	=120	=120
0r	1r	0r	2.f\	2f/	0a
.	.	.	.	2d/	.
.	.	.	4g\	.	.
.	1d	.	2a\	1f	.
.	.	.	2d\	.	.
=121	=121	=121	=121	=121	=121
0r	2c\	0A	2.e\	1e	1.cc
.	2A\	.	.	.	.
.	.	.	4c\	.	.
.	1c	.	1c	2r	.
.	.	.	.	2e/	4b\
.	.	.	.	.	4a/
=122	=122	=122	=122	=122	=122
1r	2B\	0G	0r	2.g/	2.b\
.	2G\	.	.	.	.
.	.	.	.	4f/	4cc\
1G	1B	.	.	2.d/	1dd
.	.	.	.	4e/	.
=123	=123	=123	=123	=123	=123
2F\	1A	0A	0r	4f/	0r
.	.	.	.	4g/	.
2D\	.	.	.	1a	.
1F	1D	.	.	.	.
.	.	.	.	2f/	.
=124	=124	=124	=124	=124	=124
2E\	0r	0G	2r	2g/	0r
2C/	.	.	2g\	2.e/	.
1E	.	.	2g\	.	.
.	.	.	.	4B/	.
.	.	.	2g\	2c/	.
=125	=125	=125	=125	=125	=125
0D	1r	0A	2f\	0d	1r
.	.	.	2d\	.	.
.	1A	.	1f	.	2r
.	.	.	.	.	[2a/
=126	=126	=126	=126	=126	=126
0AA	1A	0c	1e	0r	4a/]
.	.	.	.	.	4b\
.	.	.	.	.	1cc
.	1A	.	2r	.	.
.	.	.	[2e\	.	4b\
.	.	.	.	.	4a/
=127	=127	=127	=127	=127	=127
0r	2G\	0B	4e\]	2r	2b\
.	.	.	4f\	.	.
.	2E\	.	2.g\	2e/	2g/
.	1G	.	.	2d/	2r
.	.	.	4f\	.	.
.	.	.	[2d\	2B/	2g/
=128	=128	=128	=128	=128	=128
0r	2F\	0A	4d\]	2r	2a/
.	.	.	4e\	.	.
.	2D\	.	2.f\	2d/	2f/
.	1F	.	.	2c/	1a
.	.	.	4e\	.	.
.	.	.	[2c\	2A/	.
=129	=129	=129	=129	=129	=129
0r	2E\	0r	4c\]	2r	2g/
.	.	.	4d\	.	.
.	2C/	.	2.e\	2c/	2e/
.	1E	.	.	2B/	1g
.	.	.	4B\	.	.
.	.	.	2c\	2G/	.
=130	=130	=130	=130	=130	=130
1r	0D	0r	0d	2B/	2f/
.	.	.	.	2A/	2d/
1D	.	.	.	2r	1f
.	.	.	.	[2A/	.
=131	=131	=131	=131	=131	=131
2C/	2r	0r	0r	4A/]	2e/
.	.	.	.	4B/	.
2AA/	2A\	.	.	2.c/	2c/
1C	2G\	.	.	.	1e
.	.	.	.	4B/	.
.	2E\	.	.	[2G/	.
=132	=132	=132	=132	=132	=132
2BB/	2.G\	0r	1r	4G/]	0d
.	.	.	.	4A/	.
2GG/	.	.	.	2.B-/	.
.	4F\	.	.	.	.
1BB	1D	.	1dd	.	.
.	.	.	.	4F/	.
.	.	.	.	2G/	.
=133	=133	=133	=133	=133	=133
0AA	1E	0r	2cc\	0A	2r
.	.	.	2a\	.	2.a/
.	1A	.	1cc	.	.
.	.	.	.	.	4g/
.	.	.	.	.	[2e/
=134	=134	=134	=134	=134	=134
0r	2G\	0r	2b\	2r	4e/]
.	.	.	.	.	4f/
.	2E\	.	2g\	2e/	2.g/
.	1G	.	1b	2d/	.
.	.	.	.	.	4f/
.	.	.	.	2B/	[2d/
=135	=135	=135	=135	=135	=135
1r	2F\	0r	0a	2.d/	4d/]
.	.	.	.	.	4e/
.	2D\	.	.	.	1f
.	.	.	.	4c/	.
1D	1F	.	.	1A	.
.	.	.	.	.	4e/
.	.	.	.	.	4d/
=136	=136	=136	=136	=136	=136
2C/	2E\	0r	0r	2r	2e/
2AA/	2A\	.	.	2.c/	2c/
1C	2G\	.	.	.	1e
.	.	.	.	4B-/	.
.	2E\	.	.	[2G/	.
=137	=137	=137	=137	=137	=137
2BB/	2.G\	0d	0r	4G/]	0d
.	.	.	.	4A/	.
2GG/	.	.	.	2.B-i/	.
.	4F\	.	.	.	.
1BB	2.D\	.	.	.	.
.	.	.	.	4F/	.
.	.	.	.	2G/	.
.	4E\	.	.	.	.
=138	=138	=138	=138	=138	=138
0AA	2.F\	0c	1r	[0A	0r
.	4G\	.	.	.	.
.	1E	.	1e	.	.
=139	=139	=139	=139	=139	=139
0D	0D	0d	1f	0A]	1r
.	.	.	1f	.	1a
=140	=140	=140	=140	=140	=140
1r	0A	0c	1e	1r	2.cc\
.	.	.	.	.	4b\
1AA	.	.	1e	1e	2cc\
.	.	.	.	.	[2a/
=141	=141	=141	=141	=141	=141
1D	1D	0d	[0d	1f	2a/]
.	.	.	.	.	2f/
1GG	1G	.	.	1g	1b-
=142	=142	=142	=142	=142	=142
0D	1F	0f	0d]	0a	2a/
.	.	.	.	.	2d/
.	1D	.	.	.	[1dd
=143	=143	=143	=143	=143	=143
1r	0A	0e	1r	1r	2dd\]
.	.	.	.	.	4cc#i\
.	.	.	.	.	4b\
1AA	.	.	1e	1a	1cc#i
=144	=144	=144	=144	=144	=144
1D	1D	[0dl	1f	1a	[0ddl
1GG	1G	.	1g	1b-i	.
=145	=145	=145	=145	=145	=145
0D	1F	0d_	1a	1a	0dd_
.	1D	.	1a	1f	.
=146	=146	=146	=146	=146	=146
0GG	0G	0d_	0b-	0g	0dd_
=147	=147	=147	=147	=147	=147
0Dl	0Dl	0d]	0al	0fl	0dd]
==	==	==	==	==	==
*-	*-	*-	*-	*-	*-
!!!RDF**kern: l=long note in original notation
!!!RDF**kern: i=editorial accidental
!!!ENC: Jesse Rodin; Victoria Chang 2011/09/11
!!!END: 2011/04/07/
!!!EED: Jesse Rodin
!!!EEV: 2013/10/25/
!!attribution-level: 1 (secure)
!!!ONB: Translated from MusicXML and edited on 2011/04/15/ by Craig Sapp
!!muse2ps: T^@{OPR}^u^@{ONM}{. }@{OTL}^C^@{COM}\n@{SCT}^i2I100v95,95,95,95,95,120Q16
